src/svgs/text.svg

<svg width="192" height="48" viewBox="0 0 321 70" fill="none" xmlns="http://www.w3.org/2000/svg">
<path d="M24.968 0.799995C29.384 0.799995 33.32 1.824 36.776 3.872C40.296 5.856 43.048 8.64 45.032 12.224C47.016 15.744 48.008 19.776 48.008 24.32C48.008 28.864 47.016 32.928 45.032 36.512C43.048 40.032 40.296 42.816 36.776 44.864C33.32 46.848 29.384 47.84 24.968 47.84H11.24V68H0.2V0.799995H24.968ZM24.296 37.952C27.944 37.952 30.952 36.672 33.32 34.112C35.752 31.488 36.968 28.224 36.968 24.32C36.968 20.416 35.752 17.184 33.32 14.624C30.952 12 27.944 10.688 24.296 10.688H11.24V37.952H24.296ZM76.2448 69.152C71.4448 69.152 67.2528 68.128 63.6687 66.08C60.0847 64.032 57.3327 61.216 55.4127 57.632C53.5567 54.048 52.6287 50.048 52.6287 45.632C52.6287 41.216 53.5567 37.216 55.4127 33.632C57.3327 30.048 60.0847 27.232 63.6687 25.184C67.2528 23.136 71.4448 22.112 76.2448 22.112C81.0448 22.112 85.2368 23.136 88.8208 25.184C92.4048 27.232 95.1248 30.048 96.9808 33.632C98.9008 37.216 99.8608 41.216 99.8608 45.632C99.8608 50.048 98.9008 54.048 96.9808 57.632C95.1248 61.216 92.4048 64.032 88.8208 66.08C85.2368 68.128 81.0448 69.152 76.2448 69.152ZM76.2448 59.84C80.3408 59.84 83.5408 58.528 85.8448 55.904C88.2128 53.28 89.3968 49.856 89.3968 45.632C89.3968 41.408 88.2128 37.984 85.8448 35.36C83.5408 32.736 80.3408 31.424 76.2448 31.424C72.1488 31.424 68.9167 32.736 66.5487 35.36C64.2448 37.984 63.0928 41.408 63.0928 45.632C63.0928 49.856 64.2448 53.28 66.5487 55.904C68.9167 58.528 72.1488 59.84 76.2448 59.84ZM131.411 44.672L150.803 68H137.075L120.659 47.648V68H110.195V0.799995H120.659V42.848L137.555 23.264H150.803L131.411 44.672ZM195.913 43.328C195.913 44.48 195.817 46.4 195.625 49.088H162.409C162.537 52.608 163.689 55.328 165.865 57.248C168.041 59.104 171.049 60.032 174.889 60.032C177.449 60.032 179.529 59.616 181.129 58.784C182.729 57.952 183.977 56.672 184.873 54.944H195.433C194.729 59.104 192.457 62.528 188.617 65.216C184.841 67.84 180.265 69.152 174.889 69.152C167.849 69.152 162.281 67.04 158.185 62.816C154.089 58.592 152.041 52.864 152.041 45.632C152.041 40.896 152.969 36.768 154.825 33.248C156.681 29.664 159.305 26.912 162.697 24.992C166.089 23.072 170.025 22.112 174.505 22.112C178.729 22.112 182.441 23.008 185.641 24.8C188.905 26.592 191.433 29.088 193.225 32.288C195.017 35.488 195.913 39.168 195.913 43.328ZM185.641 41.12C185.577 37.664 184.553 35.008 182.569 33.152C180.649 31.296 177.897 30.368 174.313 30.368C170.665 30.368 167.785 31.36 165.673 33.344C163.561 35.328 162.473 37.92 162.409 41.12H185.641ZM226.113 59.168C228.225 59.168 229.985 59.04 231.393 58.784V68C229.217 68.384 226.625 68.576 223.617 68.576C219.649 68.576 216.225 67.616 213.345 65.696C210.529 63.712 209.121 59.424 209.121 52.832V32H201.537V23.264H209.121V9.72799H219.585V23.264H229.857V32H219.585V50.432C219.585 52.928 219.809 54.816 220.257 56.096C220.769 57.312 221.473 58.144 222.369 58.592C223.329 58.976 224.577 59.168 226.113 59.168ZM261.57 59.168C263.682 59.168 265.442 59.04 266.85 58.784V68C264.674 68.384 262.082 68.576 259.074 68.576C255.106 68.576 251.682 67.616 248.802 65.696C245.986 63.712 244.578 59.424 244.578 52.832V32H236.994V23.264H244.578V9.72799H255.042V23.264H265.314V32H255.042V50.432C255.042 52.928 255.266 54.816 255.714 56.096C256.226 57.312 256.93 58.144 257.826 58.592C258.786 58.976 260.034 59.168 261.57 59.168ZM296.557 69.152C291.757 69.152 287.565 68.128 283.981 66.08C280.397 64.032 277.645 61.216 275.725 57.632C273.869 54.048 272.941 50.048 272.941 45.632C272.941 41.216 273.869 37.216 275.725 33.632C277.645 30.048 280.397 27.232 283.981 25.184C287.565 23.136 291.757 22.112 296.557 22.112C301.357 22.112 305.549 23.136 309.133 25.184C312.717 27.232 315.437 30.048 317.293 33.632C319.213 37.216 320.173 41.216 320.173 45.632C320.173 50.048 319.213 54.048 317.293 57.632C315.437 61.216 312.717 64.032 309.133 66.08C305.549 68.128 301.357 69.152 296.557 69.152ZM296.557 59.84C300.653 59.84 303.853 58.528 306.157 55.904C308.525 53.28 309.709 49.856 309.709 45.632C309.709 41.408 308.525 37.984 306.157 35.36C303.853 32.736 300.653 31.424 296.557 31.424C292.461 31.424 289.229 32.736 286.861 35.36C284.557 37.984 283.405 41.408 283.405 45.632C283.405 49.856 284.557 53.28 286.861 55.904C289.229 58.528 292.461 59.84 296.557 59.84Z" fill="#111111"/>
</svg>

<svg fill="none" height="48" viewBox="0 0 321 70" width="192" xmlns="http://www.w3.org/2000/svg"><path d="m24.968.799995c4.416 0 8.352 1.024005 11.808 3.072005 3.52 1.984 6.272 4.768 8.256 8.352 1.984 3.52 2.976 7.552 2.976 12.096s-.992 8.608-2.976 12.192c-1.984 3.52-4.736 6.304-8.256 8.352-3.456 1.984-7.392 2.976-11.808 2.976h-13.728v20.16h-11.04v-67.200005zm-.672 37.152005c3.648 0 6.656-1.28 9.024-3.84 2.432-2.624 3.648-5.888 3.648-9.792s-1.216-7.136-3.648-9.696c-2.368-2.624-5.376-3.936-9.024-3.936h-13.056v27.264zm51.9488 31.2c-4.8 0-8.992-1.024-12.5761-3.072-3.584-2.048-6.336-4.864-8.256-8.448-1.856-3.584-2.784-7.584-2.784-12s.928-8.416 2.784-12c1.92-3.584 4.672-6.4 8.256-8.448 3.5841-2.048 7.7761-3.072 12.5761-3.072s8.992 1.024 12.576 3.072 6.304 4.864 8.16 8.448c1.92 3.584 2.88 7.584 2.88 12s-.96 8.416-2.88 12c-1.856 3.584-4.576 6.4-8.16 8.448s-7.776 3.072-12.576 3.072zm0-9.312c4.096 0 7.296-1.312 9.6-3.936 2.368-2.624 3.552-6.048 3.552-10.272s-1.184-7.648-3.552-10.272c-2.304-2.624-5.504-3.936-9.6-3.936s-7.3281 1.312-9.6961 3.936c-2.3039 2.624-3.4559 6.048-3.4559 10.272s1.152 7.648 3.4559 10.272c2.368 2.624 5.6001 3.936 9.6961 3.936zm55.1662-15.168 19.392 23.328h-13.728l-16.416-20.352v20.352h-10.464v-67.200005h10.464v42.048005l16.896-19.584h13.248zm64.502-1.344c0 1.152-.096 3.072-.288 5.76h-33.216c.128 3.52 1.28 6.24 3.456 8.16 2.176 1.856 5.184 2.784 9.024 2.784 2.56 0 4.64-.416 6.24-1.248s2.848-2.112 3.744-3.84h10.56c-.704 4.16-2.976 7.584-6.816 10.272-3.776 2.624-8.352 3.936-13.728 3.936-7.04 0-12.608-2.112-16.704-6.336s-6.144-9.952-6.144-17.184c0-4.736.928-8.864 2.784-12.384 1.856-3.584 4.48-6.336 7.872-8.256s7.328-2.88 11.808-2.88c4.224 0 7.936.896 11.136 2.688 3.264 1.792 5.792 4.288 7.584 7.488s2.688 6.88 2.688 11.04zm-10.272-2.208c-.064-3.456-1.088-6.112-3.072-7.968-1.92-1.856-4.672-2.784-8.256-2.784-3.648 0-6.528.992-8.64 2.976s-3.2 4.576-3.264 7.776zm40.472 18.048c2.112 0 3.872-.128 5.28-.384v9.216c-2.176.384-4.768.576-7.776.576-3.968 0-7.392-.96-10.272-2.88-2.816-1.984-4.224-6.272-4.224-12.864v-20.832h-7.584v-8.736h7.584v-13.53601h10.464v13.53601h10.272v8.736h-10.272v18.432c0 2.496.224 4.384.672 5.664.512 1.216 1.216 2.048 2.112 2.496.96.384 2.208.576 3.744.576zm35.457 0c2.112 0 3.872-.128 5.28-.384v9.216c-2.176.384-4.768.576-7.776.576-3.968 0-7.392-.96-10.272-2.88-2.816-1.984-4.224-6.272-4.224-12.864v-20.832h-7.584v-8.736h7.584v-13.53601h10.464v13.53601h10.272v8.736h-10.272v18.432c0 2.496.224 4.384.672 5.664.512 1.216 1.216 2.048 2.112 2.496.96.384 2.208.576 3.744.576zm34.987 9.984c-4.8 0-8.992-1.024-12.576-3.072s-6.336-4.864-8.256-8.448c-1.856-3.584-2.784-7.584-2.784-12s.928-8.416 2.784-12c1.92-3.584 4.672-6.4 8.256-8.448s7.776-3.072 12.576-3.072 8.992 1.024 12.576 3.072 6.304 4.864 8.16 8.448c1.92 3.584 2.88 7.584 2.88 12s-.96 8.416-2.88 12c-1.856 3.584-4.576 6.4-8.16 8.448s-7.776 3.072-12.576 3.072zm0-9.312c4.096 0 7.296-1.312 9.6-3.936 2.368-2.624 3.552-6.048 3.552-10.272s-1.184-7.648-3.552-10.272c-2.304-2.624-5.504-3.936-9.6-3.936s-7.328 1.312-9.696 3.936c-2.304 2.624-3.456 6.048-3.456 10.272s1.152 7.648 3.456 10.272c2.368 2.624 5.6 3.936 9.696 3.936z" fill="#111"/></svg>
